src/client/web-contents/img/common/badge/badge_family_02.svg

<?xml version="1.0" encoding="UTF-8" standalone="no"?>
<svg width="80px" height="32px" viewBox="0 0 80 32" version="1.1" xmlns="http://www.w3.org/2000/svg" xmlns:xlink="http://www.w3.org/1999/xlink">
    <!-- Generator: Sketch 50.2 (55047) - http://www.bohemiancoding.com/sketch -->
    <title>graphic_badge_family_02</title>
    <desc>Created with Sketch.</desc>
    <defs></defs>
    <g id="Icon_Badge_Graphic" stroke="none" stroke-width="1" fill="none" fill-rule="evenodd">
        <g id="##Element/Badge/Family02">
            <rect id="Rectangle-2" fill="#119ED7" x="0" y="0" width="80" height="32" rx="4"></rect>
            <path d="M23.9800001,15.66 L21.3400001,15.66 L21.3400001,24.82 L19.2800001,24.82 L19.2800001,7 L21.3400001,7 L21.3400001,13.96 L23.9800001,13.96 L23.9800001,15.66 Z M16.6600001,8.88 C16.5200001,14.4 13.8200001,18.66 8.6800001,21.48 L7.4000001,19.92 C11.5000001,18.04 14.1200001,14.3 14.4600001,10.56 L8.4400001,10.56 L8.4400001,8.88 L16.6600001,8.88 Z M39.2200001,12.7 L38.3200001,14.3 C35.6400001,13.98 32.8200001,12.48 31.8600001,10.8 C31.0400001,12.54 28.3600001,14 25.4200001,14.32 L24.5400001,12.72 C27.4200001,12.52 30.2200001,11.22 30.7200001,9.18 L25.3000001,9.18 L25.3000001,7.52 L38.4200001,7.52 L38.4200001,9.18 L33.0400001,9.18 C33.6200001,11.22 36.7800001,12.54 39.2200001,12.7 Z M39.9000001,17.36 L23.8000001,17.36 L23.8000001,15.7 L30.7800001,15.7 L30.7800001,13.32 L32.8200001,13.32 L32.8200001,15.7 L39.9000001,15.7 L39.9000001,17.36 Z M25.6800001,18.84 L37.8200001,18.84 L37.8200001,24.88 L35.7800001,24.88 L35.7800001,20.5 L25.6800001,20.5 L25.6800001,18.84 Z M55.1200001,24.82 L53.1400001,24.82 L53.1400001,15.8 L51.3400001,15.8 L51.3400001,23.96 L49.4000001,23.96 L49.4000001,7.36 L51.3400001,7.36 L51.3400001,14.08 L53.1400001,14.08 L53.1400001,7 L55.1200001,7 L55.1200001,24.82 Z M48.1600001,18.32 L48.4200001,19.96 C46.9400001,20.3 44.6400001,20.46 42.4800001,20.46 L40.6800001,20.46 L40.6800001,9.16 L47.4000001,9.16 L47.4000001,10.82 C45.8600001,10.82 44.2800001,10.8 42.7600001,10.8 L42.7600001,18.76 C44.9800001,18.76 46.8200001,18.62 48.1600001,18.32 Z M72.5000001,22.52 L56.4000001,22.52 L56.4000001,20.88 L60.5000001,20.88 L60.5000001,17.3 L62.5400001,17.3 L62.5400001,20.88 L66.3000001,20.88 L66.3000001,17.3 L68.3400001,17.3 L68.3400001,20.88 L72.5000001,20.88 L72.5000001,22.52 Z M70.9200001,16.42 L57.9000001,16.42 L57.9000001,14.76 L60.5400001,14.76 L60.2000001,11.12 L62.2600001,10.86 L62.5000001,14.76 L66.4600001,14.76 L66.9800001,10.9 L68.9800001,11.24 L68.4000001,14.76 L70.9200001,14.76 L70.9200001,16.42 Z M70.9400001,10.06 L57.8800001,10.06 L57.8800001,8.42 L70.9400001,8.42 L70.9400001,10.06 Z" id="가족대표" fill="#FFFFFF"></path>
        </g>
    </g>
</svg>

<svg height="32" viewBox="0 0 80 32" width="80" xmlns="http://www.w3.org/2000/svg"><g fill="none" fill-rule="evenodd"><rect fill="#119ed7" height="32" rx="4" width="80"/><path d="m23.9800001 15.66h-2.64v9.16h-2.06v-17.82h2.06v6.96h2.64zm-7.32-6.78c-.14 5.52-2.84 9.78-7.98 12.6l-1.28-1.56c4.1-1.88 6.72-5.62 7.06-9.36h-6.02v-1.68zm22.56 3.82-.9 1.6c-2.68-.32-5.5-1.82-6.46-3.5-.82 1.74-3.5 3.2-6.44 3.52l-.88-1.6c2.88-.2 5.68-1.5 6.18-3.54h-5.42v-1.66h13.12v1.66h-5.38c.58 2.04 3.74 3.36 6.18 3.52zm.68 4.66h-16.1v-1.66h6.98v-2.38h2.04v2.38h7.08zm-14.22 1.48h12.14v6.04h-2.04v-4.38h-10.1zm29.44 5.98h-1.98v-9.02h-1.8v8.16h-1.94v-16.6h1.94v6.72h1.8v-7.08h1.98zm-6.96-6.5.26 1.64c-1.48.34-3.78.5-5.94.5h-1.8v-11.3h6.72v1.66c-1.54 0-3.12-.02-4.64-.02v7.96c2.22 0 4.06-.14 5.4-.44zm24.34 4.2h-16.1v-1.64h4.1v-3.58h2.04v3.58h3.76v-3.58h2.04v3.58h4.16zm-1.58-6.1h-13.02v-1.66h2.64l-.34-3.64 2.06-.26.24 3.9h3.96l.52-3.86 2 .34-.58 3.52h2.52zm.02-6.36h-13.06v-1.64h13.06z" fill="#fff"/></g></svg>
